X: 1
T: The Golden Anniversary
C: John Campbell
R: strathspey
Z: 2003 John Chambers <jc:trillian.mit.edu>
M: C
L: 1/8
%%slurgraces 1
K: A
d \
| "A"c<A ~A2 a>e "(D)"f<a | "A"A>B c>e "Bm"f>B "E7"B<d \
|  "A"c<A ~A2 a>e "(D)"f<a | "E7"e>c B>d "A"c<A A :|
B \
| "A"A>B c<f e>c B<c | "A"A>B c>e "D"f>e f<a \
| "A"A>B c<f e>c B<c | "E7"E>F A>B "A"c<A A> |
B \
| "A"A>B c<f e>c B<c | "A"A>B c>e "D"f>e f>g \
| "(A)"a>b a>g "D"f>e a>f | "E7"e>c B>d "A"c<A A |]
